X:1
T:Mill of Newe
T:Mill of Newe
T:Alexander Walker
C:Alexander Walker
L:1/8
M:4/4
K:Emin
V:1 treble 
V:1
 D | B,>(EG>)E B>(EG>)B | A,>(DF>)D A<DF>D | B>(DG>)E B<E d>e | d<B A>F E/E/E E :| g | %6
 b>e a/g/f/e/ b>eg>b | a>d g/f/e/d/ a<df>a | b>e a/g/f/e/ b>ef>e | d>BA>F E/E/E E>g | %10
 b>e a/g/f/e/ b<eg>b | a>d g/f/e/d/ a<df>a | g>bg>e f>de>B | A>Fd>F E/E/E E || %14

